;FLAVOR:Marlin
;TIME:685
;Filament used: 0.482602m
;Layer height: 0.2
;MINX:98.884
;MINY:96.322
;MINZ:0.2
;MAXX:148.984
;MAXY:141.172
;MAXZ:2
;Generated with Cura_SteamEngine 4.1.0
M140 S70
M105
M190 S70
M104 S210
M105
M109 S210
M82 ;absolute extrusion mode
; Ender 3 Custom Start G-code
G28 ; Home all axes
G92 E0 ; Reset Extruder
G1 Z2.0 F3000 ; Move Z Axis up little to prevent scratching of Heat Bed
G1 X0.1 Y20 Z0.3 F5000.0 ; Move to start position
G1 X0.1 Y200.0 Z0.3 F1500.0 E15 ; Draw the first line
G1 X0.4 Y200.0 Z0.3 F5000.0 ; Move to side a little
G1 X0.4 Y20 Z0.3 F1500.0 E30 ; Draw the second line
G92 E0 ; Reset Extruder
G1 Z2.0 F3000 ; Move Z Axis up little to prevent scratching of Heat Bed
; End of custom start GCode
G92 E0
G92 E0
G1 F2400 E-5
;LAYER_COUNT:10
;LAYER:0
M107
M203 Z250
M204 S500
M205 X10 Y10
G0 F4800 X101.169 Y98.724 Z0.2
;TYPE:SKIRT
G1 F2400 E0
G1 X101.286 Y98.607 E0.0055
G1 X101.872 Y98.077 E0.03178
G1 X102.508 Y97.61 E0.05803
G1 X103.188 Y97.209 E0.08428
G1 X103.906 Y96.879 E0.11057
G1 X104.653 Y96.624 E0.13682
G1 X105.422 Y96.445 E0.16308
G1 X106.206 Y96.345 E0.18937
G1 X106.801 Y96.322 E0.20917
G1 X141.067 Y96.322 E1.34886
G1 X141.856 Y96.362 E1.37514
G1 X142.636 Y96.481 E1.40138
G1 X143.401 Y96.679 E1.42766
G1 X144.141 Y96.953 E1.45391
G1 X144.85 Y97.301 E1.48018
G1 X145.521 Y97.719 E1.50647
G1 X146.145 Y98.202 E1.53272
G1 X146.718 Y98.745 E1.55897
G1 X147.233 Y99.344 E1.58525
G1 X147.684 Y99.992 E1.61151
G1 X148.068 Y100.683 E1.6378
G1 X148.38 Y101.408 E1.66405
G1 X148.617 Y102.161 E1.69031
G1 X148.776 Y102.935 E1.71659
G1 X148.867 Y104.091 E1.75516
G1 X148.984 Y133.224 E2.72413
G1 X148.947 Y134.013 E2.7504
G1 X148.831 Y134.794 E2.77666
G1 X148.636 Y135.559 E2.80292
G1 X148.365 Y136.301 E2.82919
G1 X148.02 Y137.011 E2.85545
G1 X147.605 Y137.683 E2.88172
G1 X147.125 Y138.31 E2.90798
G1 X146.699 Y138.77 E2.92884
G1 X146.582 Y138.887 E2.93434
G1 X145.996 Y139.417 E2.96062
G1 X145.36 Y139.884 E2.98686
G1 X144.68 Y140.285 E3.01312
G1 X143.962 Y140.615 E3.0394
G1 X143.215 Y140.87 E3.06565
G1 X142.446 Y141.049 E3.09191
G1 X141.662 Y141.149 E3.1182
G1 X141.067 Y141.172 E3.13801
G1 X106.801 Y141.172 E4.2777
G1 X106.012 Y141.132 E4.30397
G1 X105.232 Y141.013 E4.33022
G1 X104.467 Y140.815 E4.3565
G1 X103.727 Y140.541 E4.38275
G1 X103.018 Y140.193 E4.40901
G1 X102.347 Y139.775 E4.43531
G1 X101.723 Y139.292 E4.46155
G1 X101.286 Y138.887 E4.48137
G1 X101.169 Y138.77 E4.48687
G1 X100.639 Y138.184 E4.51315
G1 X100.172 Y137.548 E4.5394
G1 X99.771 Y136.868 E4.56565
G1 X99.441 Y136.15 E4.59194
G1 X99.186 Y135.403 E4.61819
G1 X99.007 Y134.634 E4.64445
G1 X98.907 Y133.85 E4.67074
G1 X98.884 Y133.255 E4.69054
G1 X98.884 Y104.239 E5.65562
G1 X98.924 Y103.45 E5.68189
G1 X99.043 Y102.67 E5.70814
G1 X99.241 Y101.905 E5.73442
G1 X99.515 Y101.165 E5.76066
G1 X99.863 Y100.456 E5.78693
G1 X100.281 Y99.785 E5.81323
G1 X100.764 Y99.161 E5.83947
G1 X101.169 Y98.724 E5.85929
G0 F4800 X101.451 Y99.006
G1 F2400 X101.568 Y98.889 E5.86479
G1 X102.14 Y98.375 E5.89037
G1 X102.762 Y97.922 E5.91596
G1 X103.427 Y97.536 E5.94154
G1 X104.129 Y97.221 E5.96713
G1 X104.86 Y96.981 E5.99272
G1 X105.611 Y96.818 E6.01828
G1 X106.376 Y96.734 E6.04387
G1 X106.801 Y96.722 E6.05802
G1 X141.067 Y96.722 E7.19771
G1 X141.835 Y96.762 E7.22329
G1 X142.595 Y96.881 E7.24887
G1 X143.338 Y97.079 E7.27445
G1 X144.057 Y97.353 E7.30004
G1 X144.743 Y97.7 E7.32561
G1 X145.39 Y98.116 E7.35119
G1 X145.99 Y98.597 E7.37677
G1 X146.537 Y99.138 E7.40236
G1 X147.025 Y99.733 E7.42795
G1 X147.448 Y100.375 E7.45352
G1 X147.803 Y101.058 E7.47912
G1 X148.084 Y101.773 E7.50468
G1 X148.29 Y102.515 E7.53029
G1 X148.418 Y103.273 E7.55586
G1 X148.467 Y104.092 E7.58315
G1 X148.584 Y133.225 E8.55212
G1 X148.547 Y133.994 E8.57773
G1 X148.431 Y134.754 E8.6033
G1 X148.236 Y135.498 E8.62888
G1 X147.965 Y136.218 E8.65447
G1 X147.621 Y136.906 E8.68005
G1 X147.207 Y137.554 E8.70563
G1 X146.728 Y138.156 E8.73121
G1 X146.417 Y138.488 E8.74634
G1 X146.3 Y138.605 E8.75185
G1 X145.728 Y139.119 E8.77742
G1 X145.106 Y139.572 E8.80302
G1 X144.441 Y139.958 E8.82859
G1 X143.739 Y140.273 E8.85418
G1 X143.008 Y140.513 E8.87977
G1 X142.257 Y140.676 E8.90533
G1 X141.492 Y140.76 E8.93093
G1 X141.067 Y140.772 E8.94507
G1 X106.801 Y140.772 E10.08476
G1 X106.033 Y140.732 E10.11034
G1 X105.273 Y140.613 E10.13593
G1 X104.53 Y140.415 E10.1615
G1 X103.811 Y140.141 E10.18709
G1 X103.125 Y139.794 E10.21266
G1 X102.478 Y139.378 E10.23825
G1 X101.878 Y138.897 E10.26382
G1 X101.568 Y138.605 E10.27799
G1 X101.451 Y138.488 E10.28349
G1 X100.937 Y137.916 E10.30907
G1 X100.484 Y137.294 E10.33466
G1 X100.098 Y136.629 E10.36024
G1 X99.783 Y135.927 E10.38583
G1 X99.543 Y135.196 E10.41142
G1 X99.38 Y134.445 E10.43698
G1 X99.296 Y133.68 E10.46257
G1 X99.284 Y133.255 E10.47672
G1 X99.284 Y104.239 E11.44179
G1 X99.324 Y103.471 E11.46737
G1 X99.443 Y102.711 E11.49296
G1 X99.641 Y101.968 E11.51853
G1 X99.915 Y101.249 E11.54412
G1 X100.262 Y100.563 E11.56969
G1 X100.678 Y99.916 E11.59527
G1 X101.159 Y99.316 E11.62085
G1 X101.451 Y99.006 E11.63502
G0 F4800 X101.734 Y99.289
G1 F2400 X101.851 Y99.172 E11.64052
G1 X102.408 Y98.672 E11.66541
G1 X103.014 Y98.235 E11.69026
G1 X103.664 Y97.864 E11.71516
G1 X104.35 Y97.565 E11.74005
G1 X105.064 Y97.341 E11.76494
G1 X105.797 Y97.194 E11.7898
G1 X106.801 Y97.122 E11.82328
G1 X141.067 Y97.122 E12.96297
G1 X141.814 Y97.162 E12.98785
G1 X142.552 Y97.281 E13.01272
G1 X143.274 Y97.479 E13.03762
G1 X143.97 Y97.752 E13.06248
G1 X144.633 Y98.099 E13.08737
G1 X145.256 Y98.514 E13.11227
G1 X145.83 Y98.993 E13.13713
G1 X146.351 Y99.53 E13.16202
G1 X146.81 Y100.12 E13.18688
G1 X147.205 Y100.756 E13.21178
G1 X147.529 Y101.43 E13.23666
G1 X147.779 Y102.135 E13.26154
G1 X147.953 Y102.863 E13.28643
G1 X148.048 Y103.605 E13.31131
G1 X148.067 Y104.094 E13.32759
G1 X148.184 Y133.227 E14.29656
G1 X148.147 Y133.974 E14.32144
G1 X148.03 Y134.713 E14.34632
G1 X147.836 Y135.435 E14.37119
G1 X147.565 Y136.133 E14.39609
G1 X147.222 Y136.797 E14.42095
G1 X146.809 Y137.421 E14.44584
G1 X146.134 Y138.205 E14.48025
G1 X146.017 Y138.322 E14.48575
G1 X145.46 Y138.822 E14.51065
G1 X144.854 Y139.259 E14.5355
G1 X144.204 Y139.63 E14.56039
G1 X143.518 Y139.929 E14.58528
G1 X142.804 Y140.153 E14.61017
G1 X142.071 Y140.3 E14.63503
G1 X141.067 Y140.372 E14.66851
G1 X106.801 Y140.372 E15.8082
G1 X106.054 Y140.332 E15.83308
G1 X105.316 Y140.213 E15.85795
G1 X104.594 Y140.015 E15.88285
G1 X103.898 Y139.742 E15.90771
G1 X103.235 Y139.395 E15.9326
G1 X102.612 Y138.98 E15.9575
G1 X101.851 Y138.322 E15.99096
G1 X101.734 Y138.205 E15.99646
G1 X101.234 Y137.648 E16.02136
G1 X100.797 Y137.042 E16.04621
G1 X100.426 Y136.392 E16.0711
G1 X100.127 Y135.706 E16.09599
G1 X99.903 Y134.992 E16.12088
G1 X99.756 Y134.259 E16.14575
G1 X99.684 Y133.255 E16.17922
G1 X99.684 Y104.239 E17.1443
G1 X99.724 Y103.492 E17.16918
G1 X99.843 Y102.754 E17.19404
G1 X100.041 Y102.032 E17.21895
G1 X100.314 Y101.336 E17.24381
G1 X100.661 Y100.673 E17.2687
G1 X101.076 Y100.05 E17.2936
G1 X101.734 Y99.289 E17.32706
G0 F4800 X102.017 Y99.572
G1 F2400 X102.134 Y99.455 E17.33256
G1 X102.675 Y98.971 E17.35671
G1 X103.266 Y98.548 E17.38088
G1 X103.9 Y98.194 E17.40503
G1 X104.569 Y97.911 E17.42919
G1 X105.265 Y97.703 E17.45335
G1 X105.98 Y97.573 E17.47752
G1 X106.801 Y97.522 E17.50488
G1 X141.067 Y97.522 E18.64457
G1 X141.792 Y97.562 E18.66872
G1 X142.509 Y97.681 E18.6929
G1 X143.208 Y97.879 E18.71706
G1 X143.881 Y98.152 E18.74122
G1 X144.52 Y98.497 E18.76537
G1 X145.117 Y98.911 E18.78953
G1 X145.665 Y99.387 E18.81367
G1 X146.158 Y99.921 E18.83785
G1 X146.588 Y100.506 E18.86199
G1 X146.952 Y101.135 E18.88617
G1 X147.245 Y101.8 E18.91034
G1 X147.463 Y102.493 E18.9345
G1 X147.603 Y103.205 E18.95863
G1 X147.667 Y104.095 E18.98831
G1 X147.784 Y133.228 E19.95729
G1 X147.747 Y133.954 E19.98146
G1 X147.63 Y134.671 E20.00563
G1 X147.436 Y135.371 E20.02979
G1 X147.165 Y136.045 E20.05395
G1 X146.823 Y136.685 E20.07808
G1 X146.411 Y137.284 E20.10226
G1 X145.851 Y137.922 E20.1305
G1 X145.734 Y138.039 E20.136
G1 X145.193 Y138.523 E20.16015
G1 X144.602 Y138.946 E20.18432
G1 X143.968 Y139.3 E20.20847
G1 X143.299 Y139.583 E20.23263
G1 X142.603 Y139.791 E20.25679
G1 X141.888 Y139.921 E20.28096
G1 X141.067 Y139.972 E20.30832
G1 X106.801 Y139.972 E21.44801
G1 X106.076 Y139.932 E21.47216
G1 X105.359 Y139.813 E21.49634
G1 X104.66 Y139.615 E21.5205
G1 X103.987 Y139.342 E21.54466
G1 X103.348 Y138.997 E21.56881
G1 X102.751 Y138.583 E21.59297
G1 X102.134 Y138.039 E21.62033
G1 X102.017 Y137.922 E21.62583
G1 X101.533 Y137.381 E21.64998
G1 X101.11 Y136.79 E21.67415
G1 X100.756 Y136.156 E21.6983
G1 X100.473 Y135.487 E21.72246
G1 X100.265 Y134.791 E21.74662
G1 X100.135 Y134.076 E21.77079
G1 X100.084 Y133.255 E21.79815
G1 X100.084 Y104.239 E22.76323
G1 X100.124 Y103.514 E22.78738
G1 X100.243 Y102.797 E22.81155
G1 X100.441 Y102.098 E22.83572
G1 X100.714 Y101.425 E22.85987
G1 X101.059 Y100.786 E22.88403
G1 X101.473 Y100.189 E22.90819
G1 X102.017 Y99.572 E22.93555
G0 F4800 X102.3 Y99.855
G1 F2400 X102.417 Y99.738 E22.94105
G1 X102.942 Y99.269 E22.96447
G1 X103.517 Y98.863 E22.98788
G1 X104.135 Y98.525 E23.01131
G1 X104.786 Y98.258 E23.03471
G1 X105.464 Y98.068 E23.05813
G1 X106.159 Y97.955 E23.08155
G1 X106.801 Y97.922 E23.10293
G1 X141.067 Y97.922 E24.24262
G1 X141.77 Y97.962 E24.26604
G1 X142.464 Y98.081 E24.28946
G1 X143.139 Y98.279 E24.31286
G1 X143.788 Y98.551 E24.33626
G1 X144.402 Y98.896 E24.35968
G1 X144.973 Y99.307 E24.38308
G1 X145.494 Y99.781 E24.40651
G1 X145.958 Y100.311 E24.42994
G1 X146.358 Y100.89 E24.45335
G1 X146.69 Y101.511 E24.47677
G1 X146.95 Y102.165 E24.50018
G1 X147.134 Y102.845 E24.52361
G1 X147.24 Y103.541 E24.54702
G1 X147.267 Y104.097 E24.56554
G1 X147.384 Y133.23 E25.53451
G1 X147.347 Y133.933 E25.55793
G1 X147.23 Y134.627 E25.58133
G1 X147.036 Y135.304 E25.60476
G1 X146.766 Y135.954 E25.62817
G1 X146.424 Y136.569 E25.65157
G1 X146.014 Y137.142 E25.67501
G1 X145.568 Y137.639 E25.69722
G1 X145.451 Y137.756 E25.70272
G1 X144.926 Y138.225 E25.72614
G1 X144.351 Y138.631 E25.74955
G1 X143.733 Y138.969 E25.77297
G1 X143.082 Y139.236 E25.79638
G1 X142.404 Y139.426 E25.8198
G1 X141.709 Y139.539 E25.84322
G1 X141.067 Y139.572 E25.8646
G1 X106.801 Y139.572 E27.00429
G1 X106.098 Y139.532 E27.02771
G1 X105.404 Y139.413 E27.05113
G1 X104.729 Y139.215 E27.07452
G1 X104.08 Y138.943 E27.09793
G1 X103.466 Y138.598 E27.12135
G1 X102.895 Y138.187 E27.14475
G1 X102.417 Y137.756 E27.16616
G1 X102.3 Y137.639 E27.17166
G1 X101.831 Y137.114 E27.19508
G1 X101.425 Y136.539 E27.21849
G1 X101.087 Y135.921 E27.24192
G1 X100.82 Y135.27 E27.26532
G1 X100.63 Y134.592 E27.28874
G1 X100.517 Y133.897 E27.31216
G1 X100.484 Y133.255 E27.33354
G1 X100.484 Y104.239 E28.29862
G1 X100.524 Y103.536 E28.32204
G1 X100.643 Y102.842 E28.34546
G1 X100.841 Y102.167 E28.36885
G1 X101.113 Y101.518 E28.39226
G1 X101.458 Y100.904 E28.41568
G1 X101.869 Y100.333 E28.43908
G1 X102.3 Y99.855 E28.46049
G0 F4800 X102.583 Y100.138
G1 F2400 X102.7 Y100.021 E28.46599
G1 X103.209 Y99.568 E28.48865
G1 X103.767 Y99.179 E28.51128
G1 X104.367 Y98.857 E28.53393
G1 X105.001 Y98.608 E28.55658
G1 X105.66 Y98.435 E28.57924
G1 X106.334 Y98.341 E28.60188
G1 X106.801 Y98.322 E28.61742
G1 X141.067 Y98.322 E29.75711
G1 X141.747 Y98.362 E29.77977
G1 X142.417 Y98.481 E29.8024
G1 X143.069 Y98.678 E29.82506
G1 X143.693 Y98.95 E29.8477
G1 X144.281 Y99.294 E29.87036
G1 X144.825 Y99.704 E29.89301
G1 X145.316 Y100.175 E29.91564
G1 X145.75 Y100.7 E29.9383
G1 X146.119 Y101.272 E29.96094
G1 X146.418 Y101.884 E29.98359
G1 X146.643 Y102.526 E30.00622
G1 X146.792 Y103.191 E30.02889
G1 X146.867 Y104.099 E30.05919
G1 X146.984 Y133.232 E31.02816
G1 X146.947 Y133.912 E31.05081
G1 X146.83 Y134.582 E31.07344
G1 X146.636 Y135.235 E31.09609
G1 X146.366 Y135.86 E31.11874
G1 X146.025 Y136.449 E31.14137
G1 X145.617 Y136.995 E31.16404
G1 X145.285 Y137.356 E31.18036
G1 X145.168 Y137.473 E31.18586
G1 X144.659 Y137.926 E31.20852
G1 X144.101 Y138.315 E31.23115
G1 X143.501 Y138.637 E31.25379
G1 X142.867 Y138.886 E31.27645
G1 X142.208 Y139.059 E31.29911
G1 X141.534 Y139.153 E31.32174
G1 X141.067 Y139.172 E31.33729
G1 X106.801 Y139.172 E32.47698
G1 X106.121 Y139.132 E32.49964
G1 X105.451 Y139.013 E32.52227
G1 X104.799 Y138.816 E32.54492
G1 X104.175 Y138.544 E32.56757
G1 X103.587 Y138.2 E32.59022
G1 X103.043 Y137.79 E32.61288
G1 X102.7 Y137.473 E32.62841
G1 X102.583 Y137.356 E32.63392
G1 X102.13 Y136.847 E32.65658
G1 X101.741 Y136.289 E32.6792
G1 X101.419 Y135.689 E32.70185
G1 X101.17 Y135.055 E32.72451
G1 X100.997 Y134.396 E32.74717
G1 X100.903 Y133.722 E32.7698
G1 X100.884 Y133.255 E32.78535
G1 X100.884 Y104.239 E33.75042
G1 X100.924 Y103.559 E33.77308
G1 X101.043 Y102.889 E33.79571
G1 X101.24 Y102.237 E33.81837
G1 X101.512 Y101.613 E33.84101
G1 X101.856 Y101.025 E33.86367
G1 X102.266 Y100.481 E33.88632
G1 X102.583 Y100.138 E33.90186
G0 F4800 X102.866 Y100.421
G1 F2400 X102.983 Y100.304 E33.90736
G1 X103.475 Y99.868 E33.92922
G1 X104.016 Y99.496 E33.95106
G1 X104.598 Y99.192 E33.9729
G1 X105.213 Y98.961 E33.99475
G1 X105.852 Y98.806 E34.01662
G1 X106.801 Y98.722 E34.04831
G1 X141.067 Y98.722 E35.188
G1 X141.723 Y98.762 E35.20986
G1 X142.369 Y98.881 E35.23171
G1 X142.996 Y99.078 E35.25357
G1 X143.594 Y99.35 E35.27542
G1 X144.155 Y99.692 E35.29727
G1 X144.67 Y100.1 E35.31912
G1 X145.132 Y100.567 E35.34097
G1 X145.533 Y101.087 E35.36281
G1 X145.869 Y101.651 E35.38465
G1 X146.133 Y102.253 E35.40651
G1 X146.323 Y102.882 E35.42836
G1 X146.434 Y103.529 E35.4502
G1 X146.467 Y104.1 E35.46922
G1 X146.584 Y133.233 E36.4382
G1 X146.547 Y133.889 E36.46005
G1 X146.43 Y134.536 E36.48192
G1 X146.236 Y135.163 E36.50375
G1 X145.966 Y135.763 E36.52563
G1 X145.627 Y136.325 E36.54746
G1 X145.002 Y137.073 E36.57988
G1 X144.885 Y137.19 E36.58538
G1 X144.393 Y137.626 E36.60725
G1 X143.852 Y137.998 E36.62909
G1 X143.27 Y138.302 E36.65093
G1 X142.655 Y138.533 E36.67278
G1 X142.016 Y138.688 E36.69465
G1 X141.067 Y138.772 E36.72633
G1 X106.801 Y138.772 E37.86602
G1 X106.145 Y138.732 E37.88788
G1 X105.499 Y138.613 E37.90973
G1 X104.872 Y138.416 E37.93159
G1 X104.274 Y138.144 E37.95344
G1 X103.713 Y137.802 E37.97529
G1 X102.983 Y137.19 E38.00698
G1 X102.866 Y137.073 E38.01248
G1 X102.43 Y136.581 E38.03435
G1 X102.058 Y136.04 E38.05618
G1 X101.754 Y135.458 E38.07802
G1 X101.523 Y134.843 E38.09987
G1 X101.368 Y134.204 E38.12174
G1 X101.284 Y133.255 E38.15343
G1 X101.284 Y104.239 E39.1185
G1 X101.324 Y103.583 E39.14036
G1 X101.443 Y102.937 E39.16221
G1 X101.64 Y102.31 E39.18407
G1 X101.912 Y101.712 E39.20592
G1 X102.254 Y101.151 E39.22777
G1 X102.866 Y100.421 E39.25946
G0 F4800 X103.148 Y100.703
G1 F2400 X103.265 Y100.586 E39.26496
G1 X103.74 Y100.169 E39.28598
G1 X104.263 Y99.814 E39.30701
G1 X104.827 Y99.528 E39.32804
G1 X105.422 Y99.316 E39.34905
G1 X106.04 Y99.18 E39.37009
G1 X106.801 Y99.122 E39.39548
G1 X141.067 Y99.122 E40.53517
G1 X141.698 Y99.162 E40.5562
G1 X142.319 Y99.281 E40.57723
G1 X142.919 Y99.478 E40.59823
G1 X143.491 Y99.749 E40.61929
G1 X144.023 Y100.089 E40.64029
G1 X144.508 Y100.495 E40.66132
G1 X144.938 Y100.958 E40.68234
G1 X145.307 Y101.472 E40.70338
G1 X145.607 Y102.028 E40.7244
G1 X145.835 Y102.617 E40.7454
G1 X145.987 Y103.231 E40.76644
G1 X146.067 Y104.102 E40.79553
G1 X146.184 Y133.235 E41.76451
G1 X146.147 Y133.866 E41.78553
G1 X146.03 Y134.487 E41.80655
G1 X145.836 Y135.089 E41.82759
G1 X145.567 Y135.661 E41.84861
G1 X145.228 Y136.195 E41.86965
G1 X144.72 Y136.791 E41.89569
G1 X144.603 Y136.908 E41.9012
G1 X144.128 Y137.325 E41.92222
G1 X143.605 Y137.68 E41.94324
G1 X143.041 Y137.966 E41.96428
G1 X142.446 Y138.178 E41.98529
G1 X141.828 Y138.314 E42.00633
G1 X141.067 Y138.372 E42.03172
G1 X106.801 Y138.372 E43.17141
G1 X106.17 Y138.332 E43.19244
G1 X105.549 Y138.213 E43.21347
G1 X104.949 Y138.016 E43.23447
G1 X104.377 Y137.745 E43.25552
G1 X103.845 Y137.405 E43.27652
G1 X103.265 Y136.908 E43.30193
G1 X103.148 Y136.791 E43.30743
G1 X102.731 Y136.316 E43.32845
G1 X102.376 Y135.793 E43.34948
G1 X102.09 Y135.229 E43.37051
G1 X101.878 Y134.634 E43.39152
